X:1
T:Royal Scots Polka  "The Pipes and Drums of Thunder Bay. 1974"
M:C|
L:1/8
Q:80
C:
S:March
K:HP
|: {g}f3/4e/4 | \
{Gdc}d{e}A{gBd}B{e}A | \
{Gdc}d{e}A3/4d/4{gfg}f2 |
{gef}e{a}g3/4e/4{gcd}c{g}e3/4c/4 | \
{g}A3/4{d}c/4{g}e3/4f/4{gf}g{a}f3/4e/4{Gdc}d{e}A{gBd}B{e}A | \
{Gdc}d{e}A3/4d/4{gfg}f{g}e3/4f/4 |
{gf}g{a}e3/4c/4{g}A3/4{d}c/4{g}e3/4g/4 | \
{gfg}fd{gdG}d :: \
{g}f3/4g/4 |
{ag}a3/2g/2{g}fd | \
{g}A{Gdc}d3/4f/4{ag}ae3/4f/4 | \
{gf}g3/2e/2{gcd}ce |
{g}A3/4{d}c/4{g}e3/4f/4{gf}g{a}f3/4g/4|1 {ag}a3/2g/2{a}fd | \
{g}A{Gdc}d3/4f/4{ag}ae3/4f/4 | \
{gf}g{a}e3/4c/4{g}A3/4{d}c/4{g}e3/4g/4 |
{gfg}fd{gdG}d:|2
{ag}a3/4g/4{a}g3/4f/4{g}f3/4e/4{g}e3/4d/4 | \
{g}d3/4c/4{g}c3/4B/4{ag}ae3/4f/4 |
{gf}g{a}e3/4c/4{g}A3/4{d}c/4{g}e3/4g/4 | \
{gfg}fd{gdG}d|]  |: \
{g}A |
{Gdc}d{g}c3/4d/4{gBd}B{e}A | \
{Gdc}d{e}A3/4d/4{gfg}f2 | \
{gef}e{a}g3/4e/4{gcd}ce3/4c/4 |
{g}A3/4{d}c/4{g}e3/4f/4{gf}g{a}f3/4e/4{Gdc}dc3/4d/4{gBd}B{e}A | \
{Gdc}d{e}A3/4d/4{gfg}fe3/4f/4 | \
{gf}g{a}e3/4c/4{g}A3/4{d}c/4{g}e3/4g/4 |
{gfg}fd{gdG}d :: \
{g}f3/4g/4 | \
{ag}a{g}a3/4g/4{fg}f{Gdc}d |
{g}f3/4g/4a3/4g/4{fg}f{g}e3/4f/4 | \
{gf}g{a}g3/4e/4{gcd}c{g}e3/4c/4 | \
{g}A3/4{d}c/4{g}e3/4f/4|1 {gf}g{a}f3/4g/4{ag}a{g}a3/4g/4{fg}f{Gdc}d |
{g}f3/4g/4a3/4g/4{fg}f{g}e3/4f/4 | \
{gf}g{a}e3/4c/4{g}A3/4{d}c/4{g}e3/4g/4 | \
{gfg}fd{gdG}d:|2
{gf}g{a}f3/4e/4 | \
{g}d3/4c/4{g}c3/4B/4{g}B3/4A/4{g}A3/4G/4 | \
{Gdc}d{e}A3/4d/4{gfg}f{g}e3/4f/4 |
{gf}g{a}e3/4c/4{g}A3/4{d}c/4{g}e3/4g/4 | \
{gfg}fd{gdG}d|]
